svg/fluentui-system-icons/ic_fluent_vehicle_car_parking_20_filled.svg

<svg width="20" height="20" viewBox="0 0 20 20" fill="none" xmlns="http://www.w3.org/2000/svg">
<path d="M14 1.5C14 1.22386 14.2239 1 14.5 1H18.5C18.7761 1 19 1.22386 19 1.5V6.5C19 6.77614 18.7761 7 18.5 7H17V18.5C17 18.7761 16.7761 19 16.5 19C16.2239 19 16 18.7761 16 18.5V7H14.5C14.2239 7 14 6.77614 14 6.5V1.5ZM13 3H6.13961C4.94791 3 3.92187 3.84115 3.68816 5.00971L3.49 6H2.75C2.33579 6 2 6.33579 2 6.75C2 7.16421 2.33579 7.5 2.75 7.5H3.19L3.0789 8.05991C2.45546 8.24191 2 8.81777 2 9.5V13.5C2 14.3284 2.67157 15 3.5 15H15V11.5V8H4.1099L4.66874 5.20583C4.80896 4.50469 5.42459 4 6.13961 4H13V3ZM15 11.5C15 12.0523 14.5523 12.5 14 12.5C13.4477 12.5 13 12.0523 13 11.5C13 10.9477 13.4477 10.5 14 10.5C14.5523 10.5 15 10.9477 15 11.5ZM15 18C14.4477 18 14 17.5523 14 17V16H15V18ZM6 17V16H4V17C4 17.5523 4.44772 18 5 18C5.55228 18 6 17.5523 6 17ZM5 11.5C5 10.9477 5.44772 10.5 6 10.5C6.55228 10.5 7 10.9477 7 11.5C7 12.0523 6.55228 12.5 6 12.5C5.44772 12.5 5 12.0523 5 11.5Z" fill="#212121"/>
</svg>

<svg xmlns="http://www.w3.org/2000/svg" width="20" height="20"><path d="M14 1.5a.5.5 0 0 1 .5-.5h4a.5.5 0 0 1 .5.5v5a.5.5 0 0 1-.5.5H17v11.5a.5.5 0 0 1-1 0V7h-1.5a.5.5 0 0 1-.5-.5v-5ZM13 3H6.14a2.5 2.5 0 0 0-2.452 2.01L3.49 6h-.74a.75.75 0 0 0 0 1.5h.44l-.111.56A1.5 1.5 0 0 0 2 9.5v4A1.5 1.5 0 0 0 3.5 15H15V8H4.11l.559-2.794A1.5 1.5 0 0 1 6.139 4H13V3Zm2 8.5a1 1 0 1 1-2 0 1 1 0 0 1 2 0Zm0 6.5a1 1 0 0 1-1-1v-1h1v2Zm-9-1v-1H4v1a1 1 0 1 0 2 0Zm-1-5.5a1 1 0 1 1 2 0 1 1 0 0 1-2 0Z"/></svg>
